icons/evolvere-blue-folders-flat-vivid-dark-fallback/apps/64/ktorrent.svg

<svg xmlns="http://www.w3.org/2000/svg" viewBox="0 0 64 64"><g color="#000"><path d="m0 4v30 28l2 2h30 30l2-2v-28-30h-32-32" fill="#1a7eda"/><path d="m2 0l-2 1v3h32 32v-3l-2-1h-30-30" fill="#75c5ff"/></g><path d="m64 6l-2-2 2-1z" fill="#449feb"/><path d="m26 0v4h2v-4zm6 0v4h2v-4zm4 0v4h2v-4z" fill="#fff" color="#000"/><path d="m0 3v3l2-2z" fill="#92d1ff"/><path d="m32 4v6h-2v10h-2v-16h-2v27h-8l14 18 14-18h-8v-27h-2v12h-2v-12z" fill="#c6e2f8"/></svg>

<?xml version="1.0" encoding="UTF-8" standalone="no"?>
<!-- Created with Inkscape (http://www.inkscape.org/) -->

<svg
   xmlns:dc="http://purl.org/dc/elements/1.1/"
   xmlns:cc="http://creativecommons.org/ns#"
   xmlns:rdf="http://www.w3.org/1999/02/22-rdf-syntax-ns#"
   xmlns:svg="http://www.w3.org/2000/svg"
   xmlns="http://www.w3.org/2000/svg"
   xmlns:xlink="http://www.w3.org/1999/xlink"
   xmlns:sodipodi="http://sodipodi.sourceforge.net/DTD/sodipodi-0.dtd"
   xmlns:inkscape="http://www.inkscape.org/namespaces/inkscape"
   width="64"
   height="64"
   id="svg13094"
   version="1.1"
   inkscape:version="0.48.4 r9939"
   sodipodi:docname="ktorrent.svg">
  <sodipodi:namedview
     id="base"
     pagecolor="#ffffff"
     bordercolor="#666666"
     borderopacity="1.0"
     inkscape:pageopacity="0"
     inkscape:pageshadow="2"
     inkscape:zoom="11.313709"
     inkscape:cx="33.798625"
     inkscape:cy="31.080218"
     inkscape:document-units="px"
     inkscape:current-layer="svg13094"
     showgrid="true"
     inkscape:snap-bbox="true"
     inkscape:bbox-paths="true"
     inkscape:bbox-nodes="true"
     inkscape:snap-bbox-edge-midpoints="true"
     inkscape:snap-bbox-midpoints="true"
     inkscape:object-paths="true"
     inkscape:snap-intersection-paths="true"
     inkscape:object-nodes="true"
     inkscape:snap-smooth-nodes="true"
     inkscape:snap-midpoints="true"
     inkscape:snap-object-midpoints="true"
     inkscape:snap-center="true"
     showguides="true"
     inkscape:guide-bbox="true"
     inkscape:window-width="1920"
     inkscape:window-height="1025"
     inkscape:window-x="-2"
     inkscape:window-y="32"
     inkscape:window-maximized="1"
     inkscape:snap-global="true"
     fit-margin-top="0"
     fit-margin-left="0"
     fit-margin-right="0"
     fit-margin-bottom="0"
     showborder="true"
     inkscape:showpageshadow="false"
     inkscape:snap-page="true">
    <inkscape:grid
       type="xygrid"
       id="grid3075"
       empspacing="5"
       visible="true"
       enabled="true"
       snapvisiblegridlinesonly="true"
       originx="0px"
       originy="18px" />
  </sodipodi:namedview>
  <defs
     id="defs13096">
    <linearGradient
       id="linearGradient3774">
      <stop
         style="stop-color:#afdfff;stop-opacity:0.0946897;"
         offset="0"
         id="stop3776" />
      <stop
         style="stop-color:#afdfff;stop-opacity:0.02175304;"
         offset="1"
         id="stop3778" />
    </linearGradient>
    <radialGradient
       inkscape:collect="always"
       xlink:href="#linearGradient3774"
       id="radialGradient3780"
       cx="4.4409065"
       cy="1.9687454"
       fx="4.4409065"
       fy="1.9687454"
       r="31"
       gradientTransform="matrix(1.0645161,0,-3.4947889e-5,1.6451438,26.272654,14.761132)"
       gradientUnits="userSpaceOnUse" />
    <radialGradient
       inkscape:collect="always"
       xlink:href="#linearGradient3774"
       id="radialGradient3782"
       cx="4.4409084"
       cy="1.9687454"
       fx="4.4409084"
       fy="1.9687454"
       r="31"
       gradientTransform="matrix(1.0645161,0,-3.4946841e-5,1.6451438,26.272652,14.761132)"
       gradientUnits="userSpaceOnUse" />
    <radialGradient
       inkscape:collect="always"
       xlink:href="#linearGradient3774"
       id="radialGradient3784"
       cx="4.4409056"
       cy="1.9687454"
       fx="4.4409056"
       fy="1.9687454"
       r="31"
       gradientTransform="matrix(1.0645161,0,-3.4948412e-5,1.6451438,26.272655,14.761132)"
       gradientUnits="userSpaceOnUse" />
    <radialGradient
       inkscape:collect="always"
       xlink:href="#linearGradient3774"
       id="radialGradient3786"
       cx="4.4409094"
       cy="1.9687454"
       fx="4.4409094"
       fy="1.9687454"
       r="31"
       gradientTransform="matrix(1.0645161,0,-3.4946317e-5,1.6451438,26.272651,14.761132)"
       gradientUnits="userSpaceOnUse" />
    <radialGradient
       inkscape:collect="always"
       xlink:href="#linearGradient3774"
       id="radialGradient3788"
       cx="4.4409056"
       cy="1.9687454"
       fx="4.4409056"
       fy="1.9687454"
       r="31"
       gradientTransform="matrix(1.0645161,0,-3.4948412e-5,1.6451438,26.272655,14.761132)"
       gradientUnits="userSpaceOnUse" />
    <radialGradient
       inkscape:collect="always"
       xlink:href="#linearGradient3774"
       id="radialGradient3790"
       cx="4.4409056"
       cy="1.9687454"
       fx="4.4409056"
       fy="1.9687454"
       r="31"
       gradientTransform="matrix(1.0645161,0,-3.4948412e-5,1.6451438,26.272655,14.761132)"
       gradientUnits="userSpaceOnUse" />
  </defs>
  <metadata
     id="metadata13099">
    <rdf:RDF>
      <cc:Work
         rdf:about="">
        <dc:format>image/svg+xml</dc:format>
        <dc:type
           rdf:resource="http://purl.org/dc/dcmitype/StillImage" />
        <dc:title />
      </cc:Work>
    </rdf:RDF>
  </metadata>
  <path
     inkscape:connector-curvature="0"
     style="color:#000000;fill:#1a7eda;fill-opacity:1;fill-rule:nonzero;stroke:none;stroke-width:2.28571415000000000;marker:none;visibility:visible;display:inline;overflow:visible;enable-background:accumulate"
     d="m 0,4 0,30 0,28 2,2 30,0 30,0 2,-2 L 64,34 64,4 32,4 0,4 z"
     id="path3443" />
  <path
     inkscape:connector-curvature="0"
     style="color:#000000;fill:#75c5ff;fill-opacity:1;fill-rule:nonzero;stroke:none;stroke-width:2.28571415000000000;marker:none;visibility:visible;display:inline;overflow:visible;enable-background:accumulate"
     d="M 2,0 0,1 0,4 32,4 64,4 64,1 62,0 32,0 2,0 z"
     id="path3447" />
  <path
     d="M 64,6 62,4 64,3 z"
     id="path3028"
     style="fill:#449feb;fill-opacity:1"
     inkscape:connector-curvature="0" />
  <g
     id="g3043"
     inkscape:export-filename="folder.png"
     inkscape:export-xdpi="90"
     inkscape:export-ydpi="90"
     transform="translate(-0.625,0.082283)" />
  <g
     id="scalable"
     transform="matrix(1.0385892,0,0,1.0385892,1214.7222,1878.8121)"
     inkscape:label="#g3701"
     style="fill:#ffffff" />
  <path
     style="color:#000000;fill:#ffffff;fill-opacity:1;fill-rule:nonzero;stroke:none;stroke-width:1;marker:none;visibility:visible;display:inline;overflow:visible;enable-background:accumulate"
     d="m 26,0 0,4 2,0 0,-4 z m 6,0 0,4 2,0 0,-4 z m 4,0 0,4 2,0 0,-4 z"
     id="rect3198"
     inkscape:connector-curvature="0"
     sodipodi:nodetypes="ccccccccccccccc" />
  <path
     style="fill:#92d1ff;fill-opacity:1;fill-rule:nonzero"
     d="M 0,3 0,6 2,4 z"
     id="path4298"
     inkscape:connector-curvature="0"
     sodipodi:nodetypes="cccc" />
  <path
     sodipodi:nodetypes="cccccccccccccccccc"
     inkscape:connector-curvature="0"
     id="path4177"
     d="m 32,4 -3e-6,5.999999 L 30,9.999999 30.000004,20 28,20 27.999996,4 26,4 l 2e-6,27 L 18,31 31.999999,48.999998 46,31 37.999998,31 37.999996,4 36,4 l 0,12.000054 -2.000004,0 L 33.999999,4 z"
     style="fill:#c6e2f8;fill-opacity:1" />
</svg>
